common/src/main/resources/icons/debugger/db_evaluateNode.svg

<svg xmlns="http://www.w3.org/2000/svg" width="16" height="16" fill="#FFB74D" data-big="true" viewBox="0 0 24 24"><path d="M9 2H4c-1.1 0-2 .9-2 2v5c0 1.1.9 2 2 2h5c1.1 0 2-.9 2-2V4c0-1.1-.9-2-2-2m0 5H4V6h5zm11 6h-5c-1.1 0-2 .9-2 2v5c0 1.1.9 2 2 2h5c1.1 0 2-.9 2-2v-5c0-1.1-.9-2-2-2m0 6h-5v-1h5zm0-2h-5v-1h5zm0-15h-5c-1.1 0-2 .9-2 2v5c0 1.1.9 2 2 2h5c1.1 0 2-.9 2-2V4c0-1.1-.9-2-2-2m0 5h-2v2h-1V7h-2V6h2V4h1v2h2zM9 13H4c-1.1 0-2 .9-2 2v5c0 1.1.9 2 2 2h5c1.1 0 2-.9 2-2v-5c0-1.1-.9-2-2-2m-.38 5.91-.71.71-1.41-1.41-1.41 1.41-.71-.71 1.41-1.41-1.41-1.41.71-.71 1.41 1.41 1.41-1.41.71.71-1.41 1.41z"/></svg>

<!--
  - The MIT License (MIT)
  -
  - Copyright (c) 2015-2024 Elior "Mallowigi" Boukhobza
  -
  - Permission is hereby granted, free of charge, to any person obtaining a copy
  - of this software and associated documentation files (the "Software"), to deal
  - in the Software without restriction, including without limitation the rights
  - to use, copy, modify, merge, publish, distribute, sublicense, and/or sell
  - copies of the Software, and to permit persons to whom the Software is
  - furnished to do so, subject to the following conditions:
  -
  - The above copyright notice and this permission notice shall be included in all
  - copies or substantial portions of the Software.
  -
  - THE SOFTWARE IS PROVIDED "AS IS", WITHOUT WARRANTY OF ANY KIND, EXPRESS OR
  - IMPLIED, INCLUDING BUT NOT LIMITED TO THE WARRANTIES OF MERCHANTABILITY,
  - FITNESS FOR A PARTICULAR PURPOSE AND NONINFRINGEMENT. IN NO EVENT SHALL THE
  - AUTHORS OR COPYRIGHT HOLDERS BE LIABLE FOR ANY CLAIM, DAMAGES OR OTHER
  - LIABILITY, WHETHER IN AN ACTION OF CONTRACT, TORT OR OTHERWISE, ARISING FROM,
  - OUT OF OR IN CONNECTION WITH THE SOFTWARE OR THE USE OR OTHER DEALINGS IN THE
  - SOFTWARE.
  -->


<svg data-big="true" xmlns="http://www.w3.org/2000/svg" version="1.1" width="16px" height="16px" viewBox="0 0 24 24"
     fill="#FFB74D">
  <path
    d="M9,2H4C2.9,2 2,2.9 2,4V9C2,10.1 2.9,11 4,11H9C10.1,11 11,10.1 11,9V4C11,2.9 10.1,2 9,2M9,7H4V6H9V7M20,13H15C13.9,13 13,13.9 13,15V20C13,21.1 13.9,22 15,22H20C21.1,22 22,21.1 22,20V15C22,13.9 21.1,13 20,13M20,19H15V18H20V19M20,17H15V16H20V17M20,2H15C13.9,2 13,2.9 13,4V9C13,10.1 13.9,11 15,11H20C21.1,11 22,10.1 22,9V4C22,2.9 21.1,2 20,2M20,7H18V9H17V7H15V6H17V4H18V6H20V7M9,13H4C2.9,13 2,13.9 2,15V20C2,21.1 2.9,22 4,22H9C10.1,22 11,21.1 11,20V15C11,13.9 10.1,13 9,13M8.62,18.91L7.91,19.62L6.5,18.21L5.09,19.62L4.38,18.91L5.79,17.5L4.38,16.09L5.09,15.38L6.5,16.79L7.91,15.38L8.62,16.09L7.21,17.5L8.62,18.91Z"/>
</svg>
